X:3485
T:Cottage in the Grove, The
R:reel
D:Arty McGlynn & Nollaig Casey: Lead the Knave
Z:id:hn-reel-221
M:C|
K:Ador
~A3B AE~E2|GABd (3efg fg|eaaf gedB|(3ABc BG AGEG|
(3ABA GB AE~E2|GABd (3efg fg|eaaf gedB|1 (3ABc BG A3E:|2 (3ABc BG A4||
|:~a3b agef|gedB ABG2|(3efg fa gedB|(3ABc BG AGE2|
~a3b agef|1 gedB ABGA|~B3d (3efg eg|edcB cAce:|2 gedB ABGF|
GABd (3efg eg|edcB cAFG||
